X:1
T:Lob der Freundschaft
T:Satz: Max Reger
T:Text: Simon Dach, 1640
T:Lob der Freundschaft
T:Nr. 1 aus Zwölf Chöre aus dem Volksliederbuch („Kaiserliederbuch“) WoO VI/26
T:CPDL - Creative Commons Attribution Non Commercial 3.0
T:CPDL - Creative Commons Attribution Non Commercial 3.0
C:Max Reger
Z:CPDL - Creative Commons Attribution Non Commercial 3.0
%%score [ ( 1 2 ) ( 3 4 ) ]
L:1/8
Q:1/4=220
M:6/2
K:Eb
V:1 treble nm="Sopran\nAlt"
V:2 treble 
V:3 bass nm="Tenor\nBass"
V:4 bass 
V:1
"^Poco sostenuto"!mf! B4 B8 B4 e4 d4 | c12 B8!f! B4 | e8 d4 c8 c4 | d12 |!mf! B4 B8 | %5
w: 1.~Der Mensch hat nichts so|ei- gen, so|wohl steht ihm nichts|an,|als dass|
w: 2.~Die Red´ ist uns ge-|ge- ben, da-|mit wir nicht al-|lein|für uns|
w: 3.~Was kann die Freu- de|ma- chen, die|Ein- sam- keit ver-|hehlt?|Das gib|
w: 4.~Gott ste- het mir vor|al- len, die|mei- ne See- le|liebt;|dann soll|
 B4 e4 d4 c12 | B8 G4 A8 G4 | F8!>(! F4 E12!>)! |!p! c4 c8 c4 c4 A4 | G8 F8!mf! B4 | c12 c4 B4 B4 | %11
w: er Treu er- zei-|gen und Freund- schaft|hal- ten kann;|wenn er mit sei- nes-|glei- chen soll|tre- ten in ein|
w: nur sol- len le-|ben und fern von|Leu- ten sein;|wir sol- len uns be-|fra- gen uns|sehn auf gu- ten|
w: ein dop- pelt La-|chen, was Freun- den|wird er- zählt.|Der kann sein Leid ver-|ges- sen, der|es von Her- zen|
w: mir auch ge- fal-|len, der mir sehr|herz- lich gibt;|mit die- sen Bunds- ge-|sel- len ver-|lach' ich Pein und|
 A12 |!f! e4 e8 | e4 f4 d4 c8 | B8!ff! B4 c8 G4 | B8 F4 E8 |] %16
w: Band,|ver- spricht|sich nicht zu wei-|chen mit Her- zen,|Mund und Hand.|
w: Rat,|das Leid|ein- an- der kla-|gen, so uns be-|tre- ten hat.|
w: sagt;|der muss|sich selbst zer- fres-|sen, der im ge-|heim sich nagt.|
w: Not,|geh' auf|den Grund der Höl-|len und bre- che|durch den Tod.|
V:2
 E4 E8 F4 E4 F4 | A12 G8 F4 | G8 F4 F8 F4 | F12 | E4 E8 | F4 E4 F4 A12 | G8 E4 (E4 F4) E4 | %7
 E8 D4 B,12 | F4 F8 A4 A4 F4 | (F4 =E4) C8 _E4 | (E4 A8) A4 A4 G4 | E12 | A4 A8 | B4 =A4 F4 F8 | %14
 F8 E4 E8 E4 | E8 D4 B,8 |] %16
V:3
!mf! G,4 G,8 B,4 G,4 B,4 | (E6 D2 E2 F2) B,8!f! D4 | (E4 B,4) B,4 B,8 =A,4 | B,12 |!mf! G,4 G,8 | %5
 B,4 G,4 B,4 (E6 D2 E2 F2) | B,8 B,4 C8 B,4 | C4!>(! B,8 G,12!>)! |!p! A,4 A,8 F4 E4 C4 | %9
 C8 =A,8!mf! B,4 | (_A,4 E8) E4 E4 E4 | C12 |!f! C4 C8 | B,4 C4 B,4 (B,4 =A,4) | %14
 D8!ff! E4 C6 D2 E4 | B,8 B,4 G,8 |] %16
V:4
 E,4 E,8 D,4 C,4 B,,4 | (A,,6 B,,2 C,2 D,2) E,8 D,4 | (C,4 E,4) B,,4 F,8 F,4 | B,,12 | E,4 E,8 | %5
 D,4 C,4 B,,4 (A,,6 B,,2 C,2 D,2) | E,8 E,4 (A,4 F,4) G,4 | A,4 B,8 E,12 | F,4 F,8 F,4 A,6 B,2 | %9
 C8 F,8 G,4 | (A,6 B,2 C4) A,4 E,6 E,2 | A,12 | A,4 A,8 | G,4 F,4 B,,4 F,8 | B,8 G,4 A,6 B,2 C4 | %15
 G,4 B,6 B,2 E,8 |] %16

